X: 162
T:Roslin Castle. CJF.162
M:C|
L:1/8
Q:120
S:C.J.Fox MS, 1829/33, Beverley,E.Yorks.
R:Air
O:England
A:East Yorkshire
B:Kidson Coll.Mitchell Lib.M1805
Z:vmp.P J Headford 2000
K:F
FE|D2A>BA2GA|BAGFE2F>E|D2d>ef2ed|^cdecA2FG|!
BAGFE2FG|AFED^c2de|fde^c dAGA|F2E>DD2:|!
|:A2|d2de{g}f2ed|a>gfge2d^c|dAdef2ed|agfge2GA|!
BAGFE2FG|AFEDhd2de|fde^c dAGA|F2E>DD2:|]
